X:3287
T:Con McGinley's
R:reel
Z:id:hn-reel-307
M:C|
K:D
AFdF ~A3F|ABde fded|AFdF ABde|1 fggf edBd:|2 fggf edBA||
|:defg a2af|b2bf a2af|1 defg a2af|bafe defe:|2 g2ge f2fe|dfec d4||


